;FLAVOR:Marlin
;TIME:1439
;Filament used: 0.911294m
;Layer height: 0.2
;MINX:20.2
;MINY:20.2
;MINZ:0.2
;MAXX:199.8
;MAXY:199.8
;MAXZ:0.8
;Generated with Cura_SteamEngine 4.12.1
M140 S60
M105
M190 S60
M104 S210
M105
M109 S210
M82 ;absolute extrusion mode

; Script based on an original created by tjjfvi (https://github.com/tjjfvi)
; An up-to-date version of the tjjfvi's original script can be found
; here:  https://csi.t6.fyi/
; Note - This script will not work in Cura V4.2 and above!
; max_feedrate_z_override = {max_feedrate_z_override}
; retraction_amount = 6.5
; retraction_hop = 0.2
; retraction_hop_enabled = False
; retraction_prime_speed = 25
; retraction_retract_speed = 25
; retraction_speed = 25
; speed_travel = 150.0
; retraction_enable = True
; layer_height = 0.2
; smooth_spiralized_contours = True

; Ender 3 Custom Start G-code
G92 E0 ; Reset Extruder
G28 ; Home all axes
G1 Z2.0 F3000 ; Move Z Axis up little to prevent scratching of Heat Bed
G1 X0.1 Y20 Z0.3 F5000.0 ; Move to start position
G1 X0.1 Y200.0 Z0.3 F1500.0 E15 ; Draw the first line
G1 X0.4 Y200.0 Z0.3 F5000.0 ; Move to side a little
G1 X0.4 Y20 Z0.3 F1500.0 E30 ; Draw the second line
G92 E0 ; Reset Extruder
G1 Z2.0 F3000 ; Move Z Axis up little to prevent scratching of Heat Bed
G1 X5 Y20 Z0.3 F5000.0 ; Move over to prevent blob squish
G92 E0
G92 E0
G1 F1500 E-6.5
;LAYER_COUNT:4
;LAYER:0
M107
;MESH:Bed_Levelling_Ender_3.stl
G0 F6000 X180.588 Y39.4 Z0.2
;TYPE:WALL-INNER
G1 F1500 E0
G1 F1200 X180.6 Y39.388 E0.00056
G1 X180.6 Y20.6 E0.62546
G1 X199.4 Y20.6 E1.25075
G1 X199.4 Y39.4 E1.87604
G1 X180.588 Y39.4 E2.50173
G1 F1500 E-3.99827
G0 F6000 X180.153 Y39.58
G0 X180.261 Y40.661
G0 X120.648 Y100.274
G0 X119.58 Y100.136
G0 X119.388 Y100.6
G1 F1500 E2.50173
G1 F1200 X119.4 Y119.4 E3.12702
G1 X100.6 Y119.4 E3.75231
G1 X100.6 Y100.6 E4.3776
G1 X119.388 Y100.6 E5.00249
G1 F1500 E-1.49751
G0 F6000 X119.593 Y119.79
G0 X120.661 Y119.652
G0 X180.348 Y179.339
G0 X180.21 Y180.407
G0 X180.6 Y180.6
G1 F1500 E5.00249
G1 F1200 X199.4 Y180.6 E5.62778
G1 X199.4 Y199.4 E6.25307
G1 X180.6 Y199.4 E6.87836
G1 X180.6 Y180.6 E7.50365
G0 F6000 X179.991 Y180.2
;TYPE:WALL-OUTER
G1 F1200 X190.35 Y180.2 E7.84819
G1 X190.35 Y39.8 E12.51792
G1 X180.072 Y39.8 E12.85976
G1 X179.953 Y39.751 E12.86404
G1 X119.787 Y99.917 E15.69407
G1 X119.8 Y120.009 E16.36233
G1 X179.991 Y180.2 E19.19353
G1 F1500 E12.69353
G0 F6000 X180.323 Y180.461
G0 X180.348 Y179.339
G0 X39.593 Y40.661
G0 X39.731 Y39.593
G0 X39.4 Y39.4
;TYPE:WALL-INNER
G1 F1500 E19.19353
G1 F1200 X20.6 Y39.4 E19.81882
G1 X20.6 Y20.6 E20.44411
G1 X39.4 Y20.6 E21.0694
G1 X39.4 Y39.4 E21.69469
G1 F1500 E15.19469
G0 F6000 X39.731 Y39.593
G0 X39.593 Y40.661
G0 X99.339 Y100.407
G0 X100.542 Y100.418
G0 X119.222 Y100.5
G1 F1500 E21.69469
G0 F6000 X119.222 Y100.2
;TYPE:WALL-OUTER
G1 F1200 X180.2 Y39.222 E24.56291
G1 X180.2 Y30.55 E24.85134
G1 X39.8 Y30.55 E29.52107
G1 X39.8 Y39.368 E29.81435
G1 X100.632 Y100.2 E32.67571
G1 X119.222 Y100.2 E33.29401
G0 F6000 X119.347 Y100.605
G1 F1500 E26.79401
G0 F6000 X119.218 Y119.218
G0 X100.611 Y119.582
G0 X99.339 Y119.662
G0 X39.662 Y179.339
G0 X39.8 Y180.407
G0 X39.4 Y180.6
;TYPE:WALL-INNER
G1 F1500 E33.29401
G1 F1200 X39.4 Y199.4 E33.9193
G1 X20.6 Y199.4 E34.54459
G1 X20.6 Y180.6 E35.16988
G1 X39.4 Y180.6 E35.79517
G0 F6000 X40.019 Y180.2
;TYPE:WALL-OUTER
G1 F1200 X100.2 Y120.019 E38.6259
G1 X100.2 Y100.05 E39.29007
G1 X39.95 Y39.8 E42.12405
G1 X30.45 Y39.8 E42.44002
G1 X30.45 Y180.2 E47.10974
G1 X40.019 Y180.2 E47.42801
G1 F1500 E40.92801
G0 F6000 X39.726 Y180.438
G0 X39.5 Y190.35
G1 F1500 E47.42801
G0 F6000 X39.8 Y190.35
G1 F1200 X180.2 Y190.35 E52.09773
G1 X180.2 Y180.691 E52.41899
G1 X119.309 Y119.8 E55.28312
G1 X100.701 Y119.8 E55.90202
G1 X39.8 Y180.701 E58.76662
G1 X39.8 Y190.35 E59.08755
G0 F6000 X39.36 Y190.661
G1 F1500 E52.58755
G0 F6000 X39.58 Y199.53
G0 X40.665 Y199.53
G0 X179.335 Y199.53
G0 X180.42 Y199.53
G1 F1500 E59.08755
G0 F6000 X180.2 Y199.8
G1 F1200 X180.2 Y190.55 E59.3952
G1 X39.8 Y190.55 E64.06493
G1 X39.8 Y199.8 E64.37258
G1 X20.2 Y199.8 E65.02448
G1 X20.2 Y180.2 E65.67638
G1 X30.25 Y180.2 E66.01064
G1 X30.25 Y39.8 E70.68037
G1 X20.2 Y39.8 E71.01463
G1 X20.2 Y20.2 E71.66653
G1 X39.8 Y20.2 E72.31843
G1 X39.8 Y30.35 E72.65602
G1 X180.2 Y30.35 E77.32574
G1 X180.2 Y20.2 E77.66333
G1 X199.8 Y20.2 E78.31523
G1 X199.8 Y39.8 E78.96713
G1 X190.55 Y39.8 E79.27479
G1 X190.55 Y180.2 E83.94451
G1 X199.8 Y180.2 E84.25217
G1 X199.8 Y199.8 E84.90406
G1 X180.2 Y199.8 E85.55596
G0 F6000 X180.47 Y199.53
G0 X180.71 Y199.01
G0 X180.99 Y199.01
;TYPE:SKIN
G1 F1200 X180.99 Y180.99 E86.15531
G1 X199.01 Y180.99 E86.75466
G1 X199.01 Y199.01 E87.35401
G1 X180.99 Y199.01 E87.95335
G0 F6000 X181.312 Y198.849
G1 F1200 X181.149 Y198.685 E87.96104
G0 F6000 X181.149 Y198.12
G1 F1200 X181.878 Y198.849 E87.99533
G0 F6000 X182.444 Y198.849
G1 F1200 X181.149 Y197.554 E88.05625
G0 F6000 X181.149 Y196.988
G1 F1200 X183.009 Y198.849 E88.14376
G0 F6000 X183.575 Y198.849
G1 F1200 X181.149 Y196.422 E88.25789
G0 F6000 X181.149 Y195.857
G1 F1200 X184.141 Y198.849 E88.39863
G0 F6000 X184.706 Y198.849
G1 F1200 X181.149 Y195.291 E88.56596
G0 F6000 X181.149 Y194.725
G1 F1200 X185.272 Y198.849 E88.75992
G0 F6000 X185.838 Y198.849
G1 F1200 X181.149 Y194.16 E88.98048
G0 F6000 X181.149 Y193.594
G1 F1200 X186.403 Y198.849 E89.22763
G0 F6000 X186.969 Y198.849
G1 F1200 X181.149 Y193.028 E89.50141
G0 F6000 X181.149 Y192.463
G1 F1200 X187.535 Y198.849 E89.80179
G0 F6000 X188.101 Y198.849
G1 F1200 X181.149 Y191.897 E90.12879
G0 F6000 X181.149 Y191.331
G1 F1200 X188.666 Y198.849 E90.48239
G0 F6000 X189.232 Y198.849
G1 F1200 X181.149 Y190.766 E90.86259
G0 F6000 X181.149 Y190.2
G1 F1200 X189.798 Y198.849 E91.26941
G0 F6000 X190.363 Y198.849
G1 F1200 X181.149 Y189.634 E91.70283
G0 F6000 X181.149 Y189.069
G1 F1200 X190.929 Y198.849 E92.16285
G0 F6000 X191.495 Y198.849
G1 F1200 X181.149 Y188.503 E92.6495
G0 F6000 X181.149 Y187.937
G1 F1200 X192.06 Y198.849 E93.16274
G0 F6000 X192.626 Y198.849
G1 F1200 X181.149 Y187.371 E93.70261
G0 F6000 X181.149 Y186.806
G1 F1200 X193.192 Y198.849 E94.26907
G0 F6000 X193.757 Y198.849
G1 F1200 X181.149 Y186.24 E94.86214
G0 F6000 X181.149 Y185.674
G1 F1200 X194.323 Y198.849 E95.48183
G0 F6000 X194.889 Y198.849
G1 F1200 X181.149 Y185.109 E96.12811
G0 F6000 X181.149 Y184.543
G1 F1200 X195.454 Y198.849 E96.801
G0 F6000 X196.02 Y198.849
G1 F1200 X181.149 Y183.977 E97.50051
G0 F6000 X181.149 Y183.412
G1 F1200 X196.586 Y198.849 E98.22662
G0 F6000 X197.151 Y198.849
G1 F1200 X181.149 Y182.846 E98.97933
G0 F6000 X181.149 Y182.28
G1 F1200 X197.717 Y198.849 E99.75866
G0 F6000 X198.283 Y198.849
G1 F1200 X181.149 Y181.715 E100.56459
G0 F6000 X181.149 Y181.149
G1 F1200 X198.849 Y198.849 E101.39714
G0 F6000 X198.849 Y198.284
G1 F1200 X181.715 Y181.15 E102.20307
G0 F6000 X182.281 Y181.15
G1 F1200 X198.849 Y197.718 E102.98238
G0 F6000 X198.849 Y197.152
G1 F1200 X182.847 Y181.15 E103.73507
G0 F6000 X183.412 Y181.15
G1 F1200 X198.849 Y196.586 E104.46115
G0 F6000 X198.849 Y196.021
G1 F1200 X183.978 Y181.15 E105.16064
G0 F6000 X184.544 Y181.15
G1 F1200 X198.849 Y195.455 E105.8335
G0 F6000 X198.849 Y194.889
G1 F1200 X185.109 Y181.15 E106.47977
G0 F6000 X185.675 Y181.15
G1 F1200 X198.849 Y194.324 E107.09943
G0 F6000 X198.849 Y193.758
G1 F1200 X186.241 Y181.15 E107.69247
G0 F6000 X186.807 Y181.15
G1 F1200 X198.849 Y193.192 E108.25889
G0 F6000 X198.849 Y192.627
G1 F1200 X187.372 Y181.15 E108.79873
G0 F6000 X187.938 Y181.15
G1 F1200 X198.849 Y192.061 E109.31195
G0 F6000 X198.849 Y191.495
G1 F1200 X188.504 Y181.15 E109.79855
G0 F6000 X189.069 Y181.15
G1 F1200 X198.849 Y190.93 E110.25857
G0 F6000 X198.849 Y190.364
G1 F1200 X189.635 Y181.15 E110.69197
G0 F6000 X190.201 Y181.15
G1 F1200 X198.849 Y189.798 E111.09875
G0 F6000 X198.849 Y189.233
G1 F1200 X190.766 Y181.15 E111.47895
G0 F6000 X191.332 Y181.15
G1 F1200 X198.849 Y188.667 E111.83252
G0 F6000 X198.849 Y188.101
G1 F1200 X191.898 Y181.15 E112.15948
G0 F6000 X192.463 Y181.15
G1 F1200 X198.849 Y187.536 E112.45985
G0 F6000 X198.849 Y186.97
G1 F1200 X193.029 Y181.15 E112.73361
G0 F6000 X193.595 Y181.15
G1 F1200 X198.849 Y186.404 E112.98074
G0 F6000 X198.849 Y185.838
G1 F1200 X194.16 Y181.15 E113.20127
G0 F6000 X194.726 Y181.15
G1 F1200 X198.849 Y185.273 E113.39521
G0 F6000 X198.849 Y184.707
G1 F1200 X195.292 Y181.15 E113.56252
G0 F6000 X195.857 Y181.15
G1 F1200 X198.849 Y184.141 E113.70323
G0 F6000 X198.849 Y183.576
G1 F1200 X196.423 Y181.15 E113.81734
G0 F6000 X196.989 Y181.15
G1 F1200 X198.849 Y183.01 E113.90483
G0 F6000 X198.849 Y182.444
G1 F1200 X197.555 Y181.15 E113.9657
G0 F6000 X198.12 Y181.15
G1 F1200 X198.849 Y181.879 E113.99998
G0 F6000 X198.849 Y181.313
G1 F1200 X198.686 Y181.15 E114.00765
G1 F1500 E107.50765
G0 F6000 X198.686 Y180.71
G0 X180.21 Y180.407
G0 X180.348 Y179.339
G0 X120.661 Y119.652
G0 X119.593 Y119.79
G0 X119.29 Y119.01
G1 F1500 E114.00765
G0 F6000 X119.01 Y119.01
G1 F1200 X100.99 Y119.01 E114.607
G1 X100.99 Y100.99 E115.20635
G1 X118.998 Y100.99 E115.8053
G1 X119.01 Y119.01 E116.40464
G0 F6000 X119.29 Y119.01
G0 X101.312 Y119.29
G0 X101.312 Y118.849
G1 F1200 X101.149 Y118.685 E116.41233
G0 F6000 X101.149 Y118.12
G1 F1200 X101.878 Y118.849 E116.44662
G0 F6000 X102.444 Y118.849
G1 F1200 X101.149 Y117.554 E116.50754
G0 F6000 X101.149 Y116.988
G1 F1200 X103.009 Y118.849 E116.59505
G0 F6000 X103.575 Y118.849
G1 F1200 X101.149 Y116.423 E116.70916
G0 F6000 X101.149 Y115.857
G1 F1200 X104.141 Y118.849 E116.8499
G0 F6000 X104.706 Y118.849
G1 F1200 X101.149 Y115.291 E117.01723
G0 F6000 X101.149 Y114.725
G1 F1200 X105.272 Y118.849 E117.21119
G0 F6000 X105.838 Y118.849
G1 F1200 X101.149 Y114.16 E117.43174
G0 F6000 X101.149 Y113.594
G1 F1200 X106.404 Y118.849 E117.67892
G0 F6000 X106.969 Y118.849
G1 F1200 X101.149 Y113.028 E117.9527
G0 F6000 X101.149 Y112.463
G1 F1200 X107.535 Y118.849 E118.25308
G0 F6000 X108.101 Y118.849
G1 F1200 X101.149 Y111.897 E118.58008
G0 F6000 X101.149 Y111.331
G1 F1200 X108.666 Y118.849 E118.93368
G0 F6000 X109.232 Y118.849
G1 F1200 X101.149 Y110.766 E119.31388
G0 F6000 X101.149 Y110.2
G1 F1200 X109.798 Y118.849 E119.7207
G0 F6000 X110.363 Y118.849
G1 F1200 X101.149 Y109.634 E120.15412
G0 F6000 X101.149 Y109.069
G1 F1200 X110.929 Y118.849 E120.61414
G0 F6000 X111.495 Y118.849
G1 F1200 X101.149 Y108.503 E121.10079
G0 F6000 X101.149 Y107.937
G1 F1200 X112.06 Y118.849 E121.61403
G0 F6000 X112.626 Y118.849
G1 F1200 X101.149 Y107.372 E122.15387
G0 F6000 X101.149 Y106.806
G1 F1200 X113.192 Y118.849 E122.72034
G0 F6000 X113.757 Y118.849
G1 F1200 X101.149 Y106.24 E123.3134
G0 F6000 X101.149 Y105.674
G1 F1200 X114.323 Y118.849 E123.93309
G0 F6000 X114.889 Y118.849
G1 F1200 X101.149 Y105.109 E124.57938
G0 F6000 X101.149 Y104.543
G1 F1200 X115.454 Y118.849 E125.25227
G0 F6000 X116.02 Y118.849
G1 F1200 X101.149 Y103.977 E125.95178
G0 F6000 X101.149 Y103.412
G1 F1200 X116.586 Y118.849 E126.67789
G0 F6000 X117.152 Y118.849
G1 F1200 X101.149 Y102.846 E127.43062
G0 F6000 X101.149 Y102.28
G1 F1200 X117.717 Y118.849 E128.20995
G0 F6000 X118.283 Y118.849
G1 F1200 X101.149 Y101.715 E129.01588
G0 F6000 X101.149 Y101.149
G1 F1200 X118.849 Y118.849 E129.84843
G0 F6000 X118.849 Y118.284
G1 F1200 X101.715 Y101.15 E130.65437
G0 F6000 X102.281 Y101.15
G1 F1200 X118.849 Y117.717 E131.43365
G0 F6000 X118.849 Y117.152
G1 F1200 X102.847 Y101.15 E132.18633
G0 F6000 X103.412 Y101.15
G1 F1200 X118.848 Y116.585 E132.91237
G0 F6000 X118.848 Y116.019
G1 F1200 X103.978 Y101.15 E133.61179
G0 F6000 X104.544 Y101.15
G1 F1200 X118.847 Y115.453 E134.28456
G0 F6000 X118.847 Y114.887
G1 F1200 X105.11 Y101.15 E134.9307
G0 F6000 X105.675 Y101.15
G1 F1200 X118.846 Y114.321 E135.55023
G0 F6000 X118.846 Y113.755
G1 F1200 X106.241 Y101.15 E136.14313
G0 F6000 X106.807 Y101.15
G1 F1200 X118.846 Y113.189 E136.70941
G0 F6000 X118.846 Y112.623
G1 F1200 X107.372 Y101.15 E137.24908
G0 F6000 X107.938 Y101.15
G1 F1200 X118.845 Y112.057 E137.76212
G0 F6000 X118.844 Y111.49
G1 F1200 X108.504 Y101.15 E138.24848
G0 F6000 X109.069 Y101.15
G1 F1200 X118.844 Y110.925 E138.70826
G0 F6000 X118.844 Y110.358
G1 F1200 X109.635 Y101.15 E139.1414
G0 F6000 X110.201 Y101.15
G1 F1200 X118.844 Y109.793 E139.54794
G0 F6000 X118.843 Y109.226
G1 F1200 X110.766 Y101.15 E139.92784
G0 F6000 X111.332 Y101.15
G1 F1200 X118.843 Y108.661 E140.28113
G0 F6000 X118.842 Y108.094
G1 F1200 X111.898 Y101.15 E140.60776
G0 F6000 X112.463 Y101.15
G1 F1200 X118.842 Y107.529 E140.90781
G0 F6000 X118.842 Y106.962
G1 F1200 X113.029 Y101.15 E141.18121
G0 F6000 X113.595 Y101.15
G1 F1200 X118.842 Y106.396 E141.42799
G0 F6000 X118.841 Y105.83
G1 F1200 X114.16 Y101.15 E141.64814
G0 F6000 X114.726 Y101.15
G1 F1200 X118.84 Y105.264 E141.84165
G0 F6000 X118.84 Y104.698
G1 F1200 X115.292 Y101.15 E142.00854
G0 F6000 X115.858 Y101.15
G1 F1200 X118.839 Y104.132 E142.14878
G0 F6000 X118.839 Y103.566
G1 F1200 X116.423 Y101.15 E142.26242
G0 F6000 X116.989 Y101.15
G1 F1200 X118.839 Y103 E142.34944
G0 F6000 X118.839 Y102.434
G1 F1200 X117.555 Y101.15 E142.40984
G0 F6000 X118.12 Y101.15
G1 F1200 X118.838 Y101.867 E142.44358
G0 F6000 X118.838 Y101.302
G1 F1200 X118.686 Y101.15 E142.45073
G1 F1500 E135.95073
G0 F6000 X118.686 Y100.71
G0 X119.256 Y100.464
G0 X119.58 Y100.136
G0 X120.648 Y100.274
G0 X180.261 Y40.661
G0 X180.126 Y39.593
G0 X180.71 Y39.01
G1 F1500 E142.45073
G0 F6000 X180.99 Y39.01
G1 F1200 X180.99 Y20.99 E143.05008
G1 X199.01 Y20.99 E143.64943
G1 X199.01 Y39.01 E144.24878
G1 X180.99 Y39.01 E144.84812
G0 F6000 X181.402 Y38.849
G1 F1200 X181.149 Y38.596 E144.86003
G0 F6000 X181.149 Y38.031
G1 F1200 X181.968 Y38.849 E144.89852
G0 F6000 X182.533 Y38.849
G1 F1200 X181.149 Y37.465 E144.96362
G0 F6000 X181.149 Y36.899
G1 F1200 X183.099 Y38.849 E145.05535
G0 F6000 X183.665 Y38.849
G1 F1200 X181.149 Y36.333 E145.17369
G0 F6000 X181.149 Y35.768
G1 F1200 X184.231 Y38.849 E145.31864
G0 F6000 X184.796 Y38.849
G1 F1200 X181.149 Y35.202 E145.49018
G0 F6000 X181.149 Y34.636
G1 F1200 X185.362 Y38.849 E145.68835
G0 F6000 X185.928 Y38.849
G1 F1200 X181.149 Y34.071 E145.91311
G0 F6000 X181.149 Y33.505
G1 F1200 X186.493 Y38.849 E146.16448
G0 F6000 X187.059 Y38.849
G1 F1200 X181.149 Y32.939 E146.44247
G0 F6000 X181.149 Y32.374
G1 F1200 X187.625 Y38.849 E146.74705
G0 F6000 X188.19 Y38.849
G1 F1200 X181.149 Y31.808 E147.07824
G0 F6000 X181.149 Y31.242
G1 F1200 X188.756 Y38.849 E147.43605
G0 F6000 X189.322 Y38.849
G1 F1200 X181.149 Y30.677 E147.82046
G0 F6000 X181.149 Y30.111
G1 F1200 X189.887 Y38.849 E148.23147
G0 F6000 X190.453 Y38.849
G1 F1200 X181.149 Y29.545 E148.6691
G0 F6000 X181.149 Y28.98
G1 F1200 X191.019 Y38.849 E149.13333
G0 F6000 X191.584 Y38.849
G1 F1200 X181.149 Y28.414 E149.62416
G0 F6000 X181.149 Y27.848
G1 F1200 X192.15 Y38.849 E150.14161
G0 F6000 X192.716 Y38.849
G1 F1200 X181.149 Y27.283 E150.68567
G0 F6000 X181.149 Y26.717
G1 F1200 X193.281 Y38.849 E151.25632
G0 F6000 X193.847 Y38.849
G1 F1200 X181.149 Y26.151 E151.85359
G0 F6000 X181.149 Y25.585
G1 F1200 X194.413 Y38.849 E152.47749
G0 F6000 X194.979 Y38.849
G1 F1200 X181.149 Y25.02 E153.12799
G0 F6000 X181.149 Y24.454
G1 F1200 X195.544 Y38.849 E153.80509
G0 F6000 X196.11 Y38.849
G1 F1200 X181.149 Y23.888 E154.50881
G0 F6000 X181.149 Y23.323
G1 F1200 X196.676 Y38.849 E155.23912
G0 F6000 X197.241 Y38.849
G1 F1200 X181.149 Y22.757 E155.99604
G0 F6000 X181.149 Y22.191
G1 F1200 X197.807 Y38.849 E156.77958
G0 F6000 X198.373 Y38.849
G1 F1200 X181.149 Y21.626 E157.58972
G0 F6000 X181.239 Y21.15
G1 F1200 X198.849 Y38.76 E158.41805
G0 F6000 X198.849 Y38.195
G1 F1200 X181.804 Y21.15 E159.21979
G0 F6000 X182.37 Y21.15
G1 F1200 X198.849 Y37.629 E159.99491
G0 F6000 X198.849 Y37.063
G1 F1200 X182.936 Y21.15 E160.74341
G0 F6000 X183.501 Y21.15
G1 F1200 X198.849 Y36.498 E161.46533
G0 F6000 X198.849 Y35.932
G1 F1200 X184.067 Y21.15 E162.16063
G0 F6000 X184.633 Y21.15
G1 F1200 X198.849 Y35.366 E162.82931
G0 F6000 X198.849 Y34.8
G1 F1200 X185.199 Y21.15 E163.47136
G0 F6000 X185.764 Y21.15
G1 F1200 X198.849 Y34.235 E164.08684
G0 F6000 X198.849 Y33.669
G1 F1200 X186.33 Y21.15 E164.6757
